X: 45
M:9/8
L:1/8
K:F
|: f2 c fcf g2 a|f2 c faf g2 c|f2 c fcf g2 a|fcd cAF G2 Ff2 c fc f g2 a|f2 c faf g2 c|f2 c fcf g2 a| fcd cAF G2 F:|

